!!!!SEGMENT: pl-wn--mus-iii-601--006-001_janiewicz-feliks--vie-trio-allegro.krn
!!!cenid: 17xx:2401
!!!COM: Janiewicz, Feliks
!!!COM-rismID: pe30011012
!!!CDT: 1762-1848
!!!CNT:
!!!OPR: VIe Trio
!!!OTL: Allegro
!!!OMV: 001
!!!PDT:
!!!AGN:
!!!SMS-siglum: PL-Wn
!!!SMS-shelfmark: Mus.III.601
!!!SMS-shelfwork: 006-001 M
!!!SMS-variant:
!!!SMS-altvar:
!!!NIFC-rismSourceID: 990069598
!!!NIFC-rismChildID: 990069598
!!!NIFC-islandoraID: none
!!!URL-pdf-islandora:
!!!URL-scan: https://polona.pl/item/six-trios-pour-deux-violons-basse,MTAxMDA3MzY2/0/#item @EN{Scan on Polona} @PL{Skany w portalu Polona}
!!!ONB-nifc: UWAGA: źródło zawiera 6 Trio na 2 skrzypiec i wiolonczelę. Violino Primo (od skanu 3), Violino Secondo (od skanu 37), Basso (od skanu 61). Basso to partia wiolonczeli. Części Ie Trio: 1. Allegro, 2. Andante, 3. Rondo/Allegro
!!!AIN: 1 cello 2 violn
!!!key: B-
**kern	**dynam	**kern	**dynam	**kern	**dynam
*part3	*part3	*part2	*part2	*part1	*part1
*staff3	*	*staff2	*	*staff1	*
*I"BASSO	*	*I"VIOLINO SECONDO	*	*I"VIOLINO PRIMO	*
*I'B.	*	*I'Vn II	*	*I'Vl I	*
*Icello	*	*Ivioln	*	*Ivioln	*
*ICstr	*	*ICstr	*	*ICstr	*
*clefF4	*	*clefG2	*	*clefG2	*
*k[b-e-]	*	*k[b-e-]	*	*k[b-e-]	*
*B-:	*	*B-:	*	*B-:	*
*M4/4	*	*M4/4	*	*M4/4	*
*met(c)	*	*met(c)	*	*met(c)	*
=1	=1	=1	=1	=1	=1
*	*	*	*	*^	*
!	!	!LO:TX:a:B:t=Allegro	!	!LO:TX:a:B:t=VIe\nTRIO	!	!
!LO:TX:a:B:t=VIe.\nTRIO.	!	!LO:TX:a:B:t=VIe.\nTRIO.	!	!LO:TX:a:B:t=Allegro	!	!
!	!LO:DY:b:t=F	!	!LO:DY:b:t=F	!	!	!
12BB-'\L	f	12dd|\L	f	2raa	12d\L	.
!LO:TX:a:B:t=Allegro	!	!	!	!	!	!
12D'\	.	12b-|\	.	.	12d\ 12f	.
12F'\J	.	12f|\J	.	.	12d\J	.
4B-\	.	4d|/	.	.	4d\ 4f	.
2r	.	2r	.	(12d/L	2rcyy	.
.	.	.	.	12f/)	.	.
.	.	.	.	12b-|/J	.	.
.	.	.	.	(12a\L	.	.
.	.	.	.	12cc\)	.	.
.	.	.	.	12ee-|\J	.	.
*	*	*	*	*v	*v	*
=2	=2	=2	=2	=2	=2
!LO:TX:a:t=1	!	!LO:TX:a:t=1	!	!	!
1r	.	1r	.	(12dd\L	.
.	.	.	.	12ff\)	.
.	.	.	.	12bb-|\J	.
.	.	.	.	(12gg\L	.
.	.	.	.	12ee-\)	.
.	.	.	.	12cc|\J	.
.	.	.	.	(12ff\L	.
.	.	.	.	12dd\)	.
.	.	.	.	12b-|\J	.
.	.	.	.	(12ee-\L	.
.	.	.	.	12cc\)	.
.	.	.	.	12a|\J	.
=3	=3	=3	=3	=3	=3
4r	.	4r	.	12b-|/L	.
.	.	.	.	(12dd/	.
.	.	.	.	12cc/J	.
8.BB-/L	p	(8.d'/L	p	12b-/L	.
.	.	.	.	12a/	.
.	.	.	.	12g/J	.
16D/Jk	.	16B-'/Jk)	.	.	.
2F\	.	4c/	.	12f/L)	.
.	.	.	.	(12g/	.
.	.	.	.	12f/J	.
.	.	(8.A'/L	.	12e-/L	.
.	.	.	.	12d/	.
.	.	.	.	12c/J	.
.	.	16e-'/Jk)	.	.	.
=4	=4	=4	=4	=4	=4
!	!LO:DY:b:t=F	!	!LO:DY:b:t=F	!	!
12BB-\L	f	12d|/L	f	4B-/)	.
12D\	.	12f|/	.	.	.
12F\J	.	12b-|/J	.	.	.
4B-\	.	4dd|\	.	4r	.
2r	.	2r	.	(12d/L	.
!LO:LB:g=original	!	!LO:LB:g=original	!	!	!
.	.	.	.	12f/)	.
.	.	.	.	12b-|/J	.
.	.	.	.	(12a\L	.
.	.	.	.	12cc\)	.
.	.	.	.	12ee-|\J	.
!	!	!	!	!LO:LB:g=original	!
=5	=5	=5	=5	=5	=5
!LO:TX:a:t=1	!	!LO:TX:a:t=1	!	!	!
1r	.	1r	.	(12dd\L	.
.	.	.	.	12ff\)	.
.	.	.	.	12bb-|\J	.
.	.	.	.	(12gg\L	.
.	.	.	.	12ee-\)	.
.	.	.	.	12cc|\J	.
.	.	.	.	(12ff\L	.
.	.	.	.	12dd\)	.
.	.	.	.	12b-|\J	.
.	.	.	.	(12ee-\L	.
.	.	.	.	12cc\)	.
.	.	.	.	12a|\J	.
=6	=6	=6	=6	=6	=6
4r	.	4r	.	12b-|/L	.
.	.	.	.	(12dd/	.
.	.	.	.	12cc/J	.
4BB-/	p	(4d/	p	12b-/L	.
.	.	.	.	12a/	.
.	.	.	.	12g/J	.
4AA/	.	4c/)	.	12f/L)	.
.	.	.	.	(12g/	.
.	.	.	.	12f/J	.
4F\	.	8.A/L	.	12e-/L	.
.	.	.	.	12d/	.
.	.	.	.	12c/J	.
.	.	16e-/Jk	.	.	.
=7	=7	=7	=7	=7	=7
!	!LO:HP:t=cres	!	!LO:HP:t=cres	!	!
4BB-/	<	(12d/L	<	4B-/)	.
.	.	12e-/	.	.	.
.	.	12f/J)	.	.	.
4B-\	.	12f/L	.	4r	.
.	.	12f/	.	.	.
.	.	12f/J	[	.	.
[2BB-/	[	(12f/L	.	4r	.
.	.	12d/)	.	.	.
.	.	12f|/J	.	.	.
.	.	.	.	8qqccc/	.
.	.	(12f/L	.	(12bb-\L	.
.	.	12e-/)	.	12aa\	.
.	.	12d|/J	.	12bb-\J)	.
!	!	!LO:LB:g=original	!	!	!
=8	=8	=8	=8	=8	=8
!LO:TX:b:i:t=rinf	!	!LO:TX:b:i:t=rinf	!	!	!
4BB-/]	.	(12e-/L	.	4gg\	.
.	.	12f/	.	.	.
.	.	12g/J)	.	.	.
4B-\	.	12g'/L	.	4r	.
.	.	12g'/	.	.	.
.	.	12g'/J	.	.	.
[2BB-/	.	(12g/L	.	4r	.
!LO:LB:g=original	!	!	!	!	!
.	.	12e-/)	.	.	.
.	.	12g|/J	.	.	.
.	.	.	.	8qqccc/	.
.	.	(12g/L	.	(12bb-\L	.
.	.	12f/)	.	12aa\	.
.	.	12e-|/J	.	12bb-\J)	.
!	!	!LO:LB:g=original	!	!LO:LB:g=original	!
=9	=9	=9	=9	=9	=9
4BB-/]	.	(12d/L	p	[2ff\	.
.	.	12e-/	.	.	.
.	.	12f/J)	.	.	.
4B-\	p	(12f/L	.	.	.
.	.	12e-/	.	.	.
.	.	12d/J)	.	.	.
2B-\	.	2d/	.	12ff\L]	.
!LO:LB:g=original	!	!	!	!	!
.	.	.	.	(12ee-\	.
.	.	.	.	12dd\J	.
.	.	.	.	12dd\L	.
.	.	.	.	12cc\	.
.	.	.	.	12b-\J)	.
!	!	!	!	!LO:LB:g=original	!
=10	=10	=10	=10	=10	=10
(12A\L	.	(12c/L	.	[2f/	.
12B-\	.	12d/	.	.	.
12c\J)	.	12e-/J)	.	.	.
(12c\L	.	(12e-/L	.	.	.
12B-\	.	12d/	.	.	.
12A\J)	.	12c/J)	.	.	.
4A\	.	2c/	.	(12f/L]	.
.	.	.	.	12g/	.
.	.	.	.	12a/J	.
4F\	.	.	.	12a/L	.
.	.	.	.	12b-/	.
.	.	.	.	12cc/J)	.
=11	=11	=11	=11	=11	=11
!	!LO:HP:t=cres	!	!	!	!
4BB-/	<	(12B-/L	.	(12dd\L	.
!	!	!	!LO:HP:t=cres	!	!
.	.	12c/)	<	12cc\	.
.	.	12d|/J	.	12b-\J)	.
4B-\	.	(12d/L	.	4b-|\	.
.	.	12e-/)	.	.	.
.	.	12f|/J	.	.	.
[2BB-/	[	(12f/L	.	4r	.
.	.	12d/)	.	.	.
.	.	12f|/J	[	.	.
.	.	.	.	8qqccc/	.
.	.	(12f/L	.	(12bb-\L	.
.	.	12e-/)	.	12aa\	.
.	.	12d|/J	.	12bb-\J)	.
!	!	!LO:LB:g=original	!	!	!
=12	=12	=12	=12	=12	=12
!	!	!LO:TX:b:i:t=rinf	!	!	!
4BB-/]	.	(12e-/L	.	4gg\	.
.	.	12f/	.	.	.
.	.	12g/J)	.	.	.
!LO:TX:b:i:t=rinf	!	!	!	!	!
4B-\	.	12g'/L	.	4r	.
.	.	12g'/	.	.	.
.	.	12g'/J	.	.	.
[2BB-/	.	(12g/L	.	4r	.
.	.	12e-/)	.	.	.
.	.	12g|/J	.	.	.
.	.	.	.	8qqccc/	.
.	.	(12g/L	.	(12bb-\L	.
.	.	12f/)	.	12aa\	.
.	.	12e-|/J	.	12bb-\J)	.
=13	=13	=13	=13	=13	=13
4BB-/]	p	(12d/L	p	[2ff\	.
.	.	12e-/	.	.	.
.	.	12f/J)	.	.	.
4B-\	.	(12f/L	.	.	.
.	.	12e-/	.	.	.
.	.	12d/J)	.	.	.
2BB-/	.	2d/	.	12ff\L]	.
.	.	.	.	(12ee-\	.
.	.	.	.	12dd\J	.
.	.	.	.	12dd\L	.
.	.	.	.	12cc\	.
.	.	.	.	12b-\J)	.
=14	=14	=14	=14	=14	=14
!	!	!	!	!LO:TX:b:i:t=rinf	!
.	.	.	.	8qqee-/	.
(12A\L	.	(12c/L	.	(2f#X/	.
!	!	!LO:TX:b:i:t=rinf	!	!	!
12B-\	.	12d/	.	.	.
12c\J)	.	12e-/J)	.	.	.
(12c\L	.	(12e-/L	.	.	.
12B-\	.	12d/	.	.	.
12A\J)	.	12c/J)	.	.	.
4A\	.	4c/	.	12f#/L	.
.	.	.	.	12g/	.
.	.	.	.	12a/J)	.
4F#X\	.	4d/	.	(12a/L	.
.	.	.	.	12b-/	.
.	.	.	.	12cc/J)	.
=15	=15	=15	=15	=15	=15
*	*	*^	*	*	*
!	!LO:DY:b:t=F	!	!	!LO:DY:b:t=F	!	!
12G\L	f	12d/L	8rcyy	f	4b-\	.
12D\	.	12d/	.	.	.	.
.	.	.	4.B-\	.	.	.
12BB-\J	.	12d/J	.	.	.	.
4GG/	.	4B-/ 4d	.	.	4r	.
.	.	.	.	.	8qqcc/	.
2r	.	2raa	2rcyy	.	12b-\L	.
.	.	.	.	.	12a\	.
.	.	.	.	.	12b-\J	.
.	.	.	.	.	8qqcc/	.
.	.	.	.	.	12b-\L	.
.	.	.	.	.	12a\	.
.	.	.	.	.	12b-\J	.
!	!	!	!	!	!LO:LB:g=original	!
=16	=16	=16	=16	=16	=16	=16
12CC/L	.	12en/L	8rcyy	.	(2bb-\	.
12EEn/	.	12e/	.	.	.	.
.	.	.	4.G\	.	.	.
12GG/J	.	12e/J	.	.	.	.
4C/	.	4G/ 4e	.	.	.	.
2r	.	2raa	2rcyy	.	(12bb-\L	.
.	.	.	.	.	12aa\	.
.	.	.	.	.	12gg\J)	.
.	.	.	.	.	(12gg\L	.
.	.	.	.	.	12ff\	.
.	.	.	.	.	12een\J))	.
=17	=17	=17	=17	=17	=17	=17
12F/L	.	12a/L	8rcyy	.	(2ff\	.
12C/	.	12a/	.	.	.	.
.	.	.	4.c\	.	.	.
12AA/J	.	12a/J	.	.	.	.
4FF/	.	4c/ 4a	.	.	.	.
2r	.	2raa	2rcyy	.	(12ff\L	.
!	!	!LO:LB:g=original	!	!	!	!
.	.	.	.	.	12gg\	.
.	.	.	.	.	12aa\J)	.
.	.	.	.	.	(12aa\L	.
.	.	.	.	.	12bb-\	.
.	.	.	.	.	12ccc\J))	.
=18	=18	=18	=18	=18	=18	=18
12F\L	.	12g/L	8rcyy	.	(2bbn\	.
12D\	.	12g/	.	.	.	.
.	.	.	4.d\	.	.	.
12BBn\J	.	12g/J	.	.	.	.
4GG/	.	4d/ 4g	.	.	.	.
2r	.	2raa	2rcyy	.	(12bb\L	.
!LO:LB:g=original	!	!	!	!	!	!
.	.	.	.	.	12ccc\	.
.	.	.	.	.	12ddd\J)	.
.	.	.	.	.	(12ddd\L	.
.	.	.	.	.	12eeen\	.
.	.	.	.	.	12fff\J))	.
*	*	*v	*v	*	*	*
=19	=19	=19	=19	=19	=19
4C/	.	4G/ 4en	.	12eeen'\L	.
.	.	.	.	12ggg'\	.
.	.	.	.	12eee'\J	.
4r	.	4r	.	12ccc\L	.
.	.	.	.	12eee\	.
.	.	.	.	12ccc\J	.
2r	.	2r	.	12gg\L	.
.	.	.	.	12ccc\	.
.	.	.	.	12gg\J	.
.	.	.	.	12ee\L	.
.	.	.	.	12gg\	.
.	.	.	.	12ee\J	.
=20	=20	=20	=20	=20	=20
!	!	!	!LO:HP:t=cres	!	!
4r	.	[1G [1en	<[	12cc\L	.
.	.	.	.	12gg\	.
.	.	.	.	12een\J	.
4CC/	.	.	.	12cc\L	.
.	.	.	.	12ee\	.
.	.	.	.	12cc\J	.
4EEn/	.	.	.	12g/L	.
.	.	.	.	12cc/	.
.	.	.	.	12g/J	.
4GG/	.	.	.	12e/L	.
.	.	.	.	12g/	.
.	.	.	.	12e/J	.
!	!	!	!	!LO:LB:g=original	!
=21	=21	=21	=21	=21	=21
4C/	.	4G/] 4e]	.	4c/	.
4c\	.	4r	.	4r	.
!	!	!	!LO:DY:b:t=F	!	!
4G\	.	4G/ 4en 4cc	f	2r	.
4En\	.	4G/ 4e 4cc	.	.	.
=22	=22	=22	=22	=22	=22
4C/	.	4G/ 4e- 4cc	.	8r	.
.	.	.	.	(8cc'\L	p
4r	.	4r	.	8bn'\	.
.	.	.	.	8cc'\J	.
2r	.	2r	.	8dd'\L	.
.	.	.	.	8een'\	.
.	.	.	.	8ff'\	.
.	.	.	.	8gg'\J)	.
=23	=23	=23	=23	=23	=23
!	!	!	!	!LO:TX:b:i:t=dol	!
4r	.	4r	.	(8aa'\L	.
.	.	.	.	8gg'\	.
(4f\	p	[4cc\	.	8ff'\	.
.	.	.	.	8aa'\J)	.
2en\)	.	8cc\L]	.	4gg\	.
.	.	8b-X\J	.	.	.
.	.	4g/	.	4ccc\	.
=24	=24	=24	=24	=24	=24
8f\	.	8a/	.	(8aa'\L	.
8r	.	8r	.	8gg'\	.
(4f\	.	4cc\	.	8ff'\	.
.	.	.	.	8aa'\J)	.
2en\)	.	8cc\L	.	(4gg\	.
.	.	8b-X\J	.	.	.
.	.	4g/	.	4ccc\)	.
=25	=25	=25	=25	=25	=25
4f\	.	8a\L	.	(8aa'\L	.
.	.	8cc\	.	8gg'\	.
4r	.	8cc\	.	8ff'\	.
.	.	8cc\J	.	8aa'\J	.
4en\	.	8r	.	8gg'\L	.
.	.	8cc\L	.	8ff'\	.
4c\	.	8cc\	.	8een'\	.
.	.	8cc\J	.	8gg'\J)	.
!	!	!LO:LB:g=original	!	!	!
=26	=26	=26	=26	=26	=26
4d\	.	8r	.	(8ff'\L	.
.	.	8cc\L	.	8een'\	.
4g\	.	8bn\	.	8ff'\	.
.	.	8b\J	.	8dd'\J	.
4c\	.	4cc\	.	8cc'\L	.
.	.	.	.	8ee'\	.
4r	.	4r	.	8ff'\	.
.	.	.	.	8gg'\J)	.
=27	=27	=27	=27	=27	=27
4F\	.	8r	.	8aa\L	.
.	.	8cc\L	.	8gg\	.
4r	.	8a\	.	8ff\	.
.	.	8cc\J	.	8aa\J	.
8C\L	.	2b-X\	.	4gg\	.
8D\	.	.	.	.	.
8En\	.	.	.	4ccc\	.
!	!	!	!	!LO:LB:g=original	!
8C\J	.	.	.	.	.
=28	=28	=28	=28	=28	=28
4D\	.	8r	.	8ff\L	.
.	.	8a/L	.	8een\	.
4r	.	8f/	.	8dd\	.
.	.	8a/J	.	8ff\J	.
8AA/L	.	2g/	.	4ee\	.
8BBn/	.	.	.	.	.
8C#X/	.	.	.	4aa\	.
8AA/J	.	.	.	.	.
!LO:LB:g=original	!	!	!	!	!
=29	=29	=29	=29	=29	=29
4BB-X/	.	8r	.	8dd\L	.
.	.	8f/L	.	8cc\	.
4r	.	8d/	.	8b-\	.
.	.	8f/J	.	8dd\J	.
8FF/L	.	2e-X/	.	4cc\	.
8GG/	.	.	.	.	.
8AA/	.	.	.	4ff\	.
8FF/J	.	.	.	.	.
=30	=30	=30	=30	=30	=30
4BB-/	.	4d/	.	8dd\L	.
.	.	.	.	8een\	.
4r	.	4r	.	8ff\	.
.	.	.	.	8ff#X\J	.
4r	.	8b-\L	.	8gg\L	.
.	.	8cc\J	.	8aa\	.
8r	.	4dd\	.	8bb-\	.
8B-\	.	.	.	8gg\J	.
=31	=31	=31	=31	=31	=31
4c\	.	8cc\L	.	8aa\L	.
.	.	8b-\J	.	8gg\	.
4r	.	4a/	.	8ff\	.
.	.	.	.	8aa\J	.
8C/L	.	4b-\	.	2ggT\	.
8D/	.	.	.	.	.
8En/	.	4b-\	.	.	.
8C/J	.	.	.	.	.
=32	=32	=32	=32	=32	=32
4F\	.	4a/	.	(16ff\LL	.
.	.	.	.	16een\	.
.	.	.	.	16ff\)	.
.	.	.	.	16aa|\JJ	.
8r	.	8r	.	16cc'\LL	.
.	.	.	.	16dd'\	.
8c\	.	8g/ 8b-	.	16ee'\	.
.	.	.	.	16cc'\JJ	.
4F\	.	4f/ 4a	.	16ff\LL	.
.	.	.	.	16ee\	.
.	.	.	.	16ff\	.
.	.	.	.	16aa\JJ	.
8r	.	8r	.	16cc\LL	.
.	.	.	.	16dd\	.
8c\	.	8g/ 8b-	.	16ee\	.
.	.	.	.	16cc\JJ	.
!	!	!	!	!LO:LB:g=original	!
=33	=33	=33	=33	=33	=33
4F\	.	4f/ 4a	.	(16ff\LL	.
.	.	.	.	16een\)	.
.	.	.	.	(16gg\	.
.	.	.	.	16ff\JJ)	.
4r	.	4r	.	16aa\LL	.
.	.	.	.	16gg\	.
.	.	.	.	16bb-\	.
.	.	.	.	16aa\JJ	.
4.En\	.	8g/L	.	16ccc\LL	.
.	.	.	.	16bbn\	.
.	.	8b-/J	.	16ccc\	.
.	.	.	.	16ddd\JJ	.
.	.	4g/	.	16ccc\LL	.
!	!	!LO:LB:g=original	!	!	!
.	.	.	.	16bb-X\	.
8C/	.	.	.	16aa\	.
.	.	.	.	16gg\JJ	.
=34	=34	=34	=34	=34	=34
4F\	.	4f/ 4a	.	(16ff\LL	.
.	.	.	.	16een\	.
.	.	.	.	16ff\)	.
.	.	.	.	16aa|\JJ	.
8r	.	8r	.	16cc\LL	.
.	.	.	.	16dd\	.
8c\	.	8g/ 8b-	.	16ee\	.
.	.	.	.	16cc\JJ	.
4F\	.	4f/ 4a	.	16ff\LL	.
.	.	.	.	16ee\	.
.	.	.	.	16ff\	.
.	.	.	.	16aa\JJ	.
8r	.	8r	.	16cc\LL	.
.	.	.	.	16dd\	.
8c\	.	8g/ 8b-	.	16ee\	.
.	.	.	.	16cc\JJ	.
=35	=35	=35	=35	=35	=35
4F\	.	4f/ 4a	.	(16ff\LL	.
.	.	.	.	16een\)	.
.	.	.	.	(16gg\	.
.	.	.	.	16ff\JJ)	.
4r	.	4r	.	16aa\LL	.
.	.	.	.	16gg\	.
.	.	.	.	16bb-\	.
.	.	.	.	16aa\JJ	.
4.En\	.	8g/L	.	16ccc\LL	.
.	.	.	.	16bbn\	.
.	.	8b-/J	.	16ccc\	.
.	.	.	.	16ddd\JJ	.
.	.	4g/	.	16ccc\LL	.
.	.	.	.	16bb-X\	.
8C/	.	.	.	16aa\	.
.	.	.	.	16gg\JJ	.
!	!	!	!	!LO:LB:g=original	!
=36	=36	=36	=36	=36	=36
4F\	.	4f/ 4a	.	16ff\LL	.
.	.	.	.	16een\	.
.	.	.	.	16gg\	.
.	.	.	.	16ff\JJ	.
4r	.	4r	.	16aa\LL	.
.	.	.	.	16gg\	.
.	.	.	.	16bb-\	.
.	.	.	.	16aa\JJ	.
2r	.	2r	.	16ccc\LL	.
.	.	.	.	16bb-\	.
.	.	.	.	16ddd\	.
.	.	.	.	16ccc\JJ	.
.	.	.	.	16eee-X\LL	.
.	.	.	.	16ddd\	.
.	.	.	.	16fff\	.
.	.	.	.	16eee-\JJ	.
=37	=37	=37	=37	=37	=37
4r	.	4r	.	16eee-\LL	.
.	.	.	.	16ddd\	.
.	.	.	.	16fff\	.
.	.	.	.	16eee-\JJ	.
!	!LO:HP:t=cres	!LO:TX:b:i:t=rinf	!	!	!
4A\	<	2f/ 2cc	.	16eee-\LL	.
.	.	.	.	16ddd\	.
.	.	.	.	16fff\	.
.	.	.	.	16eee-\JJ	.
4A\	.	.	.	16eee-\LL	.
.	.	.	.	16ddd\	.
.	.	.	.	16fff\	.
.	.	.	.	16eee-\JJ	.
4A\	[	4f/	.	16eee-\LL	.
!LO:LB:g=original	!	!	!	!	!
.	.	.	.	16ddd\	.
.	.	.	.	16eee-\	.
.	.	.	.	16ccc#X\JJ	.
=38	=38	=38	=38	=38	=38
!	!LO:DY:b:t=F	!	!LO:DY:b:t=F	!	!
12B-\L	f	12f/L	f	4ddd\	.
12F\	.	12f/	.	.	.
12D\J	.	12f/J	.	.	.
4BB-/	.	4f/	.	(16ddd\LL	.
.	.	.	.	16ccc\	.
.	.	.	.	16ddd\)	.
.	.	.	.	16fff|\JJ	.
2r	.	2r	.	(16bb-\LL	.
.	.	.	.	16aa\	.
.	.	.	.	16bb-\)	.
.	.	.	.	16ddd|\JJ	.
.	.	.	.	(16ff\LL	.
.	.	.	.	16een\	.
.	.	.	.	16ff\)	.
.	.	.	.	16bb-|\JJ	.
!	!	!	!	!LO:LB:g=original	!
=39	=39	=39	=39	=39	=39
12BB-/L	.	12f/L	.	16dd\LL	.
.	.	.	.	16cc#X\	.
12D/	.	12f/	.	.	.
.	.	.	.	16dd\	.
12F/J	.	12f/J	.	.	.
.	.	.	.	16ff\JJ	.
4B-\	.	4f/	.	16b-\LL	.
.	.	.	.	16a\	.
.	.	.	.	16b-\	.
.	.	.	.	16dd\JJ	.
2r	.	2r	.	16f/LL	.
.	.	.	.	16en/	.
.	.	.	.	16f/	.
.	.	.	.	16b-/JJ	.
.	.	.	.	16d/LL	.
.	.	.	.	16c#X/	.
.	.	.	.	16d/	.
.	.	.	.	16f/JJ	.
=40	=40	=40	=40	=40	=40
!LO:TX:a:t=1	!	!LO:TX:a:t=1	!	!	!
1r	.	1r	.	(16B-/LL	.
.	.	.	.	16d/)	.
.	.	.	.	(16f/	.
.	.	.	.	16d/JJ)	.
.	.	.	.	(16b-/LL	.
.	.	.	.	16f/)	.
.	.	.	.	(16dd/	.
.	.	.	.	16b-/JJ)	.
.	.	.	.	16ff\LL	.
.	.	.	.	16dd\	.
.	.	.	.	16bb-\	.
.	.	.	.	16ff\JJ	.
.	.	.	.	16ddd\LL	.
.	.	.	.	16bb-\	.
.	.	.	.	16fff\	.
.	.	.	.	16ddd\JJ	.
=41	=41	=41	=41	=41	=41
2c\	p	2cc\ [2ff	p	(16ccc\LL	.
.	.	.	.	16aaa\)	.
.	.	.	.	16aaa'\	.
.	.	.	.	16aaa'\JJ	p
*	*	*	*	*tremolo	*
.	.	.	.	16aaa'\LL	.
.	.	.	.	16aaa'\	.
.	.	.	.	16aaa'\	.
.	.	.	.	16aaa'\JJ	.
*	*	*	*	*Xtremolo	*
4C/	.	4cc\ 4ff]	.	4aaa\	.
4r	.	4r	.	4r	.
=42	=42	=42	=42	=42	=42
(2CC/	pp	[2G/ [2en	pp	(16bb-\LL	pp
.	.	.	.	16gg\	.
.	.	.	.	16een\	.
.	.	.	.	16cc\JJ	.
.	.	.	.	16b-/LL	.
.	.	.	.	16g/	.
.	.	.	.	16e-/	.
.	.	.	.	16c/JJ	.
4C/)	.	4G/] 4e]	.	4B-/)	.
4r;	.	4r	.	4r;	.
!	!	!	!	!LO:LB:g=original	!
=43	=43	=43	=43	=43	=43
*	*	*^	*	*^	*
!	!LO:DY:b:t=F	!	!	!LO:DY:b:t=F	!	!	!
12F/L	f	12f/L	8rcyy	f	2raa	12f\L	.
12C/	.	12f/	.	.	.	12f\	.
.	.	.	4.A\	.	.	.	.
12AA/J	.	12f/J	.	.	.	12f\J	.
4FF/	.	4A/ 4f	.	.	.	4f\	.
2r	.	2raa	2rcyy	.	(12a/L	2rcyy	.
!	!	!LO:LB:g=original	!	!	!	!	!
.	.	.	.	.	12cc/)	.	.
.	.	.	.	.	12ff|/J	.	.
.	.	.	.	.	(12een\L	.	.
.	.	.	.	.	12gg\)	.	.
.	.	.	.	.	12bb-|\J	.	.
*	*	*v	*v	*	*	*	*
*	*	*	*	*v	*v	*
=44	=44	=44	=44	=44	=44
!LO:TX:a:t=1	!	!LO:TX:a:t=1	!	!	!
1r	.	1r	.	12aa\L	.
.	.	.	.	12ccc\	.
.	.	.	.	12ff\J	.
.	.	.	.	12een\L	.
.	.	.	.	12gg\	.
.	.	.	.	12b-\J	.
.	.	.	.	12a/L	.
.	.	.	.	12cc/	.
.	.	.	.	12f/J	.
.	.	.	.	12e/L	.
.	.	.	.	12g/	.
.	.	.	.	12B-/J	.
=45	=45	=45	=45	=45	=45
*	*	*^	*	*	*
12F/L	.	12f/L	8rcyy	.	4A/	.
12C/	.	12f/	.	.	.	.
.	.	.	4.c\	.	.	.
12AA/J	.	12f/J	.	.	.	.
4FF/	.	4c/ 4f	.	.	4r	.
2r	.	2raa	2rcyy	.	12a\L	.
.	.	.	.	.	12cc\	.
.	.	.	.	.	12ff\J	.
.	.	.	.	.	12een\L	.
.	.	.	.	.	12gg\	.
.	.	.	.	.	12bb-\J	.
*	*	*v	*v	*	*	*
=46	=46	=46	=46	=46	=46
!LO:TX:a:t=1	!	!LO:TX:a:t=1	!	!	!
1r	.	1r	.	12aa\L	.
.	.	.	.	12ccc\	.
.	.	.	.	12ff\J	.
.	.	.	.	12een\L	.
.	.	.	.	12gg\	.
.	.	.	.	12b-\J	.
.	.	.	.	12a/L	.
.	.	.	.	12cc/	.
.	.	.	.	12f/J	.
.	.	.	.	12en/L	.
.	.	.	.	12g/	.
.	.	.	.	12B-/J	.
!	!	!	!	!LO:LB:g=original	!
=47	=47	=47	=47	=47	=47
4F\	.	2c/	.	12A/L	.
.	.	.	.	12c/	.
.	.	.	.	12f/J	.
4C/	.	.	.	12en/L	.
.	.	.	.	12g/	.
.	.	.	.	12b-/J	.
4F\	.	4c/	.	12a\L	.
.	.	.	.	12cc\	.
.	.	.	.	12ff\J	.
4C/	.	4c/	.	12een\L	.
.	.	.	.	12gg\	.
.	.	.	.	12bb-\J	.
=48	=48	=48	=48	=48	=48
12F/L	.	12c/L	.	4aa\	.
12C/	.	12A/	.	.	.
12AA/J	.	12c/J	.	.	.
12FF/L	.	12f/L	.	4a\ 4ff	.
12AA/	.	12c/	.	.	.
12C/J	.	12f/J	.	.	.
4F\	.	4a/	.	4a\ 4ff	.
4r	.	4r	.	4r	.
=49:|!	=49:|!	=49:|!	=49:|!	=49:|!	=49:|!
*	*	*^	*	*^	*
!	!LO:DY:b:t=F	!	!	!LO:DY:b:t=F	!	!	!
12F\L	f	12a-X/L	8rcyy	f	2raa	12a-X\L	.
12F\	.	12a-/	.	.	.	12a-\	.
.	.	.	4.c\	.	.	.	.
12F\J	.	12a-/J	.	.	.	12a-\J	.
4F\	.	4c/ 4a-	.	.	.	4a-\	.
2r	.	2raa	2rcyy	.	12a-X\L	2rcyy	.
!LO:LB:g=original	!	!	!	!	!	!	!
.	.	.	.	.	12cc\	.	.
.	.	.	.	.	12ff\J	.	.
.	.	.	.	.	12een\L	.	.
.	.	.	.	.	12gg\	.	.
.	.	.	.	.	12bb-\J	.	.
*	*	*v	*v	*	*	*	*
*	*	*	*	*v	*v	*
=50	=50	=50	=50	=50	=50
!LO:TX:a:t=1	!	!LO:TX:a:t=1	!	!	!
1r	.	1r	.	12aa-X\L	.
.	.	.	.	12ccc\	.
.	.	.	.	12ff\J	.
.	.	.	.	12een\L	.
.	.	.	.	12gg\	.
.	.	.	.	12b-\J	.
.	.	.	.	12a/L	.
.	.	.	.	12cc/	.
.	.	.	.	12f/J	.
.	.	.	.	12e-/L	.
.	.	.	.	12g/	.
.	.	.	.	12B-/J	.
!	!	!	!	!LO:LB:g=original	!
=51	=51	=51	=51	=51	=51
*	*	*^	*	*	*
12F\L	.	12f/L	8rcyy	.	4A-X/	.
12F\	.	12f/	.	.	.	.
.	.	.	4.A-X\	.	.	.
12F\J	.	12f/J	.	.	.	.
4F\	.	4A-/ 4f	.	.	4r	.
2r	.	2raa	2rcyy	.	12f/L	.
.	.	.	.	.	12a/	.
.	.	.	.	.	12dd-X/J	.
.	.	.	.	.	12cc\L	.
.	.	.	.	.	12ee-\	.
.	.	.	.	.	12gg-X\J	.
*	*	*v	*v	*	*	*
=52	=52	=52	=52	=52	=52
!LO:TX:a:t=1	!	!LO:TX:a:t=1	!	!	!
1r	.	1r	.	12ff\L	.
.	.	.	.	12aa-X\	.
.	.	.	.	12dd-X\J	.
.	.	.	.	12cc/L	.
.	.	.	.	12ee-/	.
.	.	.	.	12g-X/J	.
.	.	.	.	12f/L	.
.	.	.	.	12a/	.
.	.	.	.	12d/J	.
.	.	.	.	12c/L	.
.	.	.	.	12e-/	.
.	.	.	.	12g-/J	.
=53	=53	=53	=53	=53	=53
4D-X\	.	4f/	.	12f/L	.
.	.	.	.	12a-X/	.
.	.	.	.	12d-X/J	.
4AA-X/	.	4e-/	.	12c/L	.
.	.	.	.	12e-/	.
.	.	.	.	12g-X/J	.
4D-/	.	4f/	.	12f/L	.
.	.	.	.	12a-/	.
.	.	.	.	12dd/J	.
4AA-/	.	4e-/	.	12cc\L	.
.	.	.	.	12ee-\	.
.	.	.	.	12ff\J	.
=54	=54	=54	=54	=54	=54
4A-X\	.	4c/ 4e-	.	12gg-X'\L	.
.	.	.	.	12ff'\	.
.	.	.	.	12ee-'\J	.
4r	.	4r	.	12dd-X\L	.
.	.	.	.	12cc\	.
.	.	.	.	12b-\J	.
2r	.	2r	.	12a-X/L	.
!	!	!LO:LB:g=original	!	!	!
.	.	.	.	12b-/	.
.	.	.	.	12a-/J	.
.	.	.	.	8qqa-/	.
.	.	.	.	12g/L	.
.	.	.	.	12f/	.
.	.	.	.	12e-/J	.
!	!	!	!	!LO:LB:g=original	!
=55	=55	=55	=55	=55	=55
4D-X\	.	(12f/L	.	4d-X/	.
.	.	12g-X/	.	.	.
.	.	12a-X'/J)	.	.	.
4D-\	.	12a-'/L	.	4r	.
.	.	12a-'/	.	.	.
.	.	12a-'/J	.	.	.
[2D-\	.	(12a-/L	.	4r	.
.	.	12f/)	.	.	.
.	.	12a-|/J	.	.	.
.	.	(12a-/L	.	12ddd\L	.
.	.	12g-X/)	.	12ccc\	.
.	.	12f|/J	.	12ddd\J	.
=56	=56	=56	=56	=56	=56
4D-\]	.	(12g-X/L	.	4bb-\	.
.	.	12a-X/	.	.	.
.	.	12b-/J)	.	.	.
!	!	!LO:TX:b:i:t=rinf	!	!	!
4D-y\	.	12b-'\L	.	4r	.
.	.	12b-'\	.	.	.
.	.	12b-'\J	.	.	.
[2D-\	.	12b-/L	.	4r	.
.	.	12g-/	.	.	.
.	.	12b-/J	.	.	.
.	.	12b-/L	.	12ddd-X\L	.
.	.	12a-/	.	12ccc\	.
.	.	12g-/J	.	12ddd-\J	.
=57	=57	=57	=57	=57	=57
4D-\]	.	(12f/L	p	(2aa-X\	.
.	.	12g-X/	.	.	.
.	.	12a-X/J)	.	.	.
4d-X\	.	(12a-/L	.	.	.
.	.	12g-/	.	.	.
.	.	12f/J)	.	.	.
!	!	!	!	!LO:TX:b:i:t=dol	!
2d-\	.	4f/	.	(12aa-\L	.
.	.	.	.	12gg-X\	.
.	.	.	.	12ff\J)	.
.	.	4r	.	(12ff\L	.
.	.	.	.	12ee-\	.
.	.	.	.	12dd-X\J))	.
=58	=58	=58	=58	=58	=58
12c\L	.	(12e-/L	.	(2a-X/	.
12d-X\	.	12f/	.	.	.
12e-\J	.	12g-X/J)	.	.	.
(12e-\L	.	(12g-/L	.	.	.
12d-\	.	12f/	.	.	.
12c\J)	.	12e-/J)	.	.	.
4c\	.	4e-/	.	(12a-/L	.
.	.	.	.	12b-/	.
.	.	.	.	12cc/J)	.
4A-X\	.	4r	.	(12cc/L	.
!	!	!LO:LB:g=original	!	!	!
.	.	.	.	12dd-X/	.
.	.	.	.	12ee-/J))	.
=59	=59	=59	=59	=59	=59
!	!	!LO:TX:b:i:t=rinf	!	!	!
4d-X\	.	2a-X/	.	(12ff\L	.
.	.	.	.	12ee-\	.
.	.	.	.	12dd-X\J	.
4D-X/	.	.	.	12dd-\L	.
.	.	.	.	12ee-\	.
.	.	.	.	12ff\J	.
4C/	.	(12a-/L	.	4ff\)	.
.	.	12g-X/	.	.	.
.	.	12f/J)	.	.	.
4C-X/	.	(12f/L	.	4r	.
.	.	12e-/	.	.	.
.	.	12dn/J)	.	.	.
=60	=60	=60	=60	=60	=60
2.BB-/	.	(12d/L	.	(2ddn\	.
.	.	12e-/)	.	.	.
.	.	12f|/J	.	.	.
.	.	(12f/L	.	.	.
.	.	12g-X/)	.	.	.
.	.	12a-X|/J	.	.	.
.	.	4a-/	.	(12dd\L	.
.	.	.	.	12ee-\	.
.	.	.	.	12ff\J)	.
4B-\	.	4r	.	(12ff\L	.
!LO:LB:g=original	!	!	!	!	!
.	.	.	.	12gg-X\	.
.	.	.	.	12aa-X\J))	.
!	!	!	!	!LO:LB:g=original	!
=61	=61	=61	=61	=61	=61
!	!	!LO:TX:b:i:t=rinf	!	!	!
4r	.	2b-\	.	(12gg-X\L	.
.	.	.	.	12ff\	.
.	.	.	.	12ee-\J	.
(4E-\	.	.	.	12ee-\L	.
.	.	.	.	12ff\	.
.	.	.	.	12gg-\J)	.
4Dn\	.	(12b-/L	.	4gg-\	.
.	.	12a-X/	.	.	.
.	.	12g-X/J)	.	.	.
4D-X\)	.	(12g-/L	.	4r	.
.	.	12f/	.	.	.
.	.	12en/J)	.	.	.
=62	=62	=62	=62	=62	=62
2.C/	.	(12en/L	.	(2een\	<
.	.	12f/)	.	.	.
.	.	12gn|/J	.	.	.
.	.	(12g/L	.	.	.
.	.	12a-X/)	.	.	.
.	.	12b-|/J	.	.	.
.	.	4b-\	.	(12ee\L	.
.	.	.	.	12ff\	.
.	.	.	.	12ggn\J)	[
4c\	.	4r	.	(12gg\L	.
.	.	.	.	12aa-X\	.
.	.	.	.	12bb-\J))	.
=63	=63	=63	=63	=63	=63
!	!	!LO:TX:b:i:t=rinf	!	!	!
4r	.	2cc\	.	((12aa-X\L	.
.	.	.	.	12gg\	.
.	.	.	.	12ff\J)	.
(4F\	.	.	.	(12ff\L	.
.	.	.	.	12gg\	.
.	.	.	.	12aa-\J))	.
4En\	.	(12cc/L	.	4aa-\	.
.	.	12b-/	.	.	.
.	.	12a-X/J)	.	.	.
4E-X\)	.	(12a-/L	.	4r	.
.	.	12g/	.	.	.
.	.	12f#X/J)	.	.	.
!	!	!LO:LB:g=original	!	!	!
=64	=64	=64	=64	=64	=64
2.Dn\	.	(12f#X/L	.	(2ff#X\	.
.	.	12g/)	.	.	.
.	.	12an|/J	.	.	.
.	.	(12a\L	.	.	.
.	.	12b-\	.	.	.
.	.	12cc\J)	.	.	.
!	!	!	!	!LO:TX:b:i:t=rinf	!
.	.	4cc\	.	(12ff#\L	.
.	.	.	.	12gg\	.
.	.	.	.	12aan\J)	.
4d\	.	4r	.	(12aa\L	.
.	.	.	.	12bb-\	.
.	.	.	.	12ccc\J))	.
=65	=65	=65	=65	=65	=65
!	!	!LO:TX:b:i:t=rinf	!	!	!
4r	.	2dd\	.	((12bb-\L	.
.	.	.	.	12aa\	.
.	.	.	.	12gg\J)	.
(4G\	.	.	.	(12gg\L	.
.	.	.	.	12aa\	.
.	.	.	.	12bb-\J))	.
4F#X\	.	(12dd\L	.	4bb-\	.
.	.	12cc\)	.	.	.
.	.	12b-\J	.	.	.
4Fn\)	.	(12b-/L	.	4r	.
!	!	!	!	!LO:PB:g=original	!
.	.	12a/	.	.	.
.	.	12g/J)	.	.	.
=66	=66	=66	=66	=66	=66
4En\	<	(12g\L	.	[2gg\	.
.	.	12a\)	.	.	.
.	.	12b-|\J	.	.	.
2.E-X\	[[	(12b-\L	.	.	.
.	.	12cc\)	.	.	.
.	.	12dd|\J	.	.	.
.	.	(12dd\L	.	12gg\L]	.
.	.	12cc\)	.	(12aa\	.
.	.	12b-|\J	.	12bb-\J	.
.	.	(12b-/L	.	12bbn\L	.
.	.	12a/)	.	12ccc\	.
.	.	12g|/J	.	12ccc#X\J	.
=67	=67	=67	=67	=67	=67
12D\L	.	4f#X/	.	4ddd\)	.
12F#X\	.	.	.	.	.
12A\J	.	.	.	.	.
12d\L	.	4r	.	4r	.
12A\	.	.	.	.	.
12F#\J	.	.	.	.	.
!	!	!	!LO:DY:b:t=F	!	!LO:DY:b:t=F
4D\	.	12aa\L	f	12cccn\L	f
.	.	12ff#X\	.	12aa\	.
.	.	12aa\J	.	12ccc\J	.
.	.	8qqbb-/	.	8qqddd/	.
[4D\	.	12aa\L	.	12ccc\L	.
.	.	12gg\	.	12bb-\	.
.	.	12ff#\J	.	12aa\J	.
=68	=68	=68	=68	=68	=68
12D\L]	.	4gg\	.	4bb-\	.
12G\	.	.	.	.	.
12B-\J	.	.	.	.	.
12d\L	.	4r	.	4r	.
12B-\	.	.	.	.	.
12G\J	.	.	.	.	.
4D\	.	12bb-\L	.	12ddd\L	.
.	.	12gg\	.	12bb-\	.
.	.	12bb-\J	.	12ddd\J	.
.	.	8qqccc/	.	8qqeee-/	.
[4D\	.	12bb-\L	.	12ddd\L	.
!LO:LB:g=original	!	!	!	!	!
.	.	12aa\	.	12ccc\	.
.	.	12gg\J	.	12bb-\J	.
!	!	!LO:LB:g=original	!	!	!
=69	=69	=69	=69	=69	=69
12D\L]	p	4ff#X\	p	4aa\	.
12F#X\	.	.	.	.	.
12A\J	.	.	.	.	.
12d\L	.	4r	.	4r	.
12A\	.	.	.	.	.
12F#\J	.	.	.	.	.
4D\	.	12aa\L	.	12ccc\L	p
.	.	12ff#\	.	12aa\	.
.	.	12aa\J	.	12ccc\J	.
.	.	8qqbb-/	.	8qqddd/	.
[4D\	.	12aa\L	.	12ccc\L	.
.	.	12gg\	.	12bb-\	.
.	.	12ff#\J	.	12aa\J	.
=70	=70	=70	=70	=70	=70
12D\L]	.	4gg\	.	4bb-\	.
12G\	.	.	.	.	.
12B-\J	.	.	.	.	.
12d\L	.	4r	.	4r	.
12B-\	.	.	.	.	.
12G\J	.	.	.	.	.
4D\	.	12bb-\L	.	12ddd\L	.
.	.	12gg\	.	12bb-\	.
.	.	12bb-\J	.	12ddd\J	.
.	.	8qqccc/	.	8qqeee-/	.
[4D\	.	12bb-\L	.	12ddd\L	.
.	.	12aa\	.	12ccc\	.
.	.	12gg\J	.	12bb-\J	.
!	!	!	!	!LO:LB:g=original	!
=71	=71	=71	=71	=71	=71
!	!LO:DY:b:t=F	!	!	!	!
12D\L]	f	4ff#X\	.	4aa\	.
12F#X\	.	.	.	.	.
12A\J	.	.	.	.	.
12d\L	.	4r	.	4r	.
12A\	.	.	.	.	.
12F#\J	.	.	.	.	.
!	!	!	!LO:DY:b:t=F	!	!LO:DY:b:t=F
4D\	.	12d/L	f	12dd\L	f
.	.	12f#X/	.	12ff#X\	.
.	.	12a/J	.	12aa\J	.
[4DD/	.	12dd/L	.	12ddd\L	.
.	.	12a/	.	12aa\	.
.	.	12f#/J	.	12ff#\J	.
=72	=72	=72	=72	=72	=72
12DD/L]	.	4d/	.	4dd\	.
12FF#X/	.	.	.	.	.
12AA/J	.	.	.	.	.
12D/L	.	4d/ 4a 4ff#X	.	4d\ 4dd 4ddd	.
12AA/	.	.	.	.	.
12FF#/J	.	.	.	.	.
4DD/	.	4d/ 4a 4ff#	.	4d/	.
4r	.	4r	.	4r	.
=73	=73	=73	=73	=73	=73
4GG/	p	8g|/L	p	4r	.
.	.	(8b-/	.	.	.
!	!	!	!	!LO:TX:b:i:t=dol	!
4r	.	8a/	.	(4dd'\	.
.	.	8g/J)	.	.	.
[2G\	.	8b-|\L	.	4dd'\	.
.	.	(8dd\	.	.	.
.	.	8cc\	.	4dd'\)	.
.	.	8b-\J)	.	.	.
=74	=74	=74	=74	=74	=74
4G\]	.	8a\L	.	[4ee-X\	.
.	.	8cc\	.	.	.
4F#Xt\	.	8a\	.	8.ee-\L]	.
.	.	8cc\J	.	.	.
.	.	.	.	16dd\Jk	.
4G\	.	4b-\	.	4dd\	.
4r	.	4r	.	(16ff#X\KL	.
!	!	!LO:LB:g=original	!	!	!
.	.	.	.	8.gg\J)	.
=75	=75	=75	=75	=75	=75
4G\	.	4d/ 4b-	.	4dd\	.
4r	.	4r	.	(16aa\KL	.
.	.	.	.	8.bb-\J)	.
4GG/	.	8b-\L	.	8ddd|\L	.
.	.	8dd\	.	8bb-|\	.
4r	.	8b-\	.	8gg|\	.
.	.	8g\J	.	8dd|\J	.
=76	=76	=76	=76	=76	=76
!	!	!	!	!	!LO:DY:b:t=F
.	.	.	.	8qqff/	f
!	!	!	!LO:DY:b:t=F	!	!
4c|\	.	4f#X|/ 4a	f	4ee-|\	.
4B-|\	.	4g|/ 4b-	.	4dd|\	.
2r	.	2r	.	2r	.
!LO:LB:g=original	!	!	!	!	!
=77	=77	=77	=77	=77	=77
!LO:TX:b:i:t=dol	!	!	!	!	!
8c'\L	.	4r	.	4cc\	.
(8e-\	.	.	.	.	.
!	!	!LO:TX:b:i:t=dol	!	!	!
8d\	.	4g'/	.	4r	.
8c\J)	.	.	.	.	.
8e-'\L	.	4g'/	.	[2ccc\	p
(8g\	.	.	.	.	.
8f\	.	4g'/	.	.	.
8e-\J)	.	.	.	.	.
=78	=78	=78	=78	=78	=78
8d\L	.	[4a-X/	.	4ccc\]	.
8f\	.	.	.	.	.
8d\	.	8.a-/L]	.	4bbnt\	.
8f\J	.	.	.	.	.
.	.	16g/Jk	.	.	.
4e-\	.	4g/	.	4ccc\	.
4r	.	16bn\KL	.	4r	.
!	!	!	!	!LO:LB:g=original	!
.	.	8.cc\J	.	.	.
=79	=79	=79	=79	=79	=79
4E-\	.	4g/	.	4cc\	.
4r	.	16dd\KL	.	4r	.
.	.	8.ee-\J	.	.	.
8E-\L	.	8gg\L	.	4ccc\	.
8G\	.	8ee-\	.	.	.
8E-\	.	8cc\	.	4r	.
8C\J	.	8g\J	.	.	.
=80	=80	=80	=80	=80	=80
!	!	!	!LO:DY:b:t=F	!	!
.	.	8qqb-/	f	.	.
!	!LO:DY:b:t=F	!	!	!	!LO:DY:b:t=F
4BBn'/	f	4a-X'/	.	4dd|\ 4ff	f
4C'/	.	4g'/	.	4ee-|\	.
2r	.	2r	.	2r	.
=81	=81	=81	=81	=81	=81
4r	.	4f/	.	8an|/L	.
.	.	.	.	(8cc/	.
4f'\	p	4r	.	8b-/	.
.	.	.	.	8a/J)	.
4f'\	.	[2ff\	.	8a|/L	.
.	.	.	.	(8cc/	.
4f\	.	.	.	8b-/	.
.	.	.	.	8a/J)	.
=82	=82	=82	=82	=82	=82
[4g-X\	.	4ff\]	.	8b-\L	.
.	.	.	.	8dd-X\	.
8.g-\L]	.	4eent\	.	8b-\	.
.	.	.	.	8cc\J	.
16f\Jk	.	.	.	.	.
4f\	.	4ff\	.	4a\	.
(8.en\L	.	4r	.	4r	.
!	!	!LO:LB:g=original	!	!	!
16f\Jk)	.	.	.	.	.
=83	=83	=83	=83	=83	=83
4f\	.	4r	.	4r	.
4r	.	(8.en/L	p	(8.g#X/L	.
.	.	16f/Jk)	.	16a/Jk)	.
4r	.	4f/	.	4a/	.
(8.g-X\L	.	4r	.	4r	.
16f\Jk)	.	.	.	.	.
=84	=84	=84	=84	=84	=84
4f\	.	4r	.	4r	.
4r	.	(8.g#X/L	.	(8.bn\L	.
.	.	16a/Jk)	.	16cc\Jk)	.
4r	.	4a/	.	4cc\	.
(8.g-X\L	.	4r	.	4r	.
16f\Jk)	.	.	.	.	.
!LO:LB:g=original	!	!	!	!	!
=85	=85	=85	=85	=85	=85
4f\	.	4r	.	4r	.
4r	.	8.bn\L	.	8.dd\L	.
.	.	16cc\Jk	.	16ee-\Jk	.
(4.G-X\	.	4cc\	.	12ee-\L	.
.	.	.	.	12aa\	.
.	.	.	.	12ccc\	.
.	.	4r	.	12eee-\	.
.	.	.	.	12ccc\	.
8F\)	.	.	.	.	.
.	.	.	.	12aa\J	.
!	!	!	!	!LO:LB:g=original	!
=86	=86	=86	=86	=86	=86
!	!	!LO:TX:b:i:t=rinf	!LO:DY:a	!	!
4F\	.	[1c [1e-X	>]	12ee-\L	.
!	!	!	!	!	!LO:HP:t=cres
.	.	.	.	12aa\	<
.	.	.	.	12ccc\	.
4r	.	.	.	12fff\	.
.	.	.	.	12ccc\	.
.	.	.	.	12aa\J	.
(4.G-X\	.	.	.	12ee-\L	.
.	.	.	.	12aa\	.
.	.	.	.	12ccc\	.
.	.	.	.	12eee-\	.
.	.	.	.	12ccc\	.
8F\)	.	.	.	.	.
.	.	.	.	12aa\J	[
=87	=87	=87	=87	=87	=87
!	!	!	!	!	!LO:DY:b:t=F
4F\	.	4c/] 4e-]	.	12ee-\L	f
.	.	.	.	12aa\	.
.	.	.	.	12ccc\	.
4r	.	4r	.	12eee-\	.
.	.	.	.	12ccc\	.
.	.	.	.	12aa\J	.
2r	.	2r	.	12ff\L	.
.	.	.	.	12ee-\	.
.	.	.	.	12cc\J	.
.	.	.	.	12a/L	.
.	.	.	.	12f/	.
.	.	.	.	12e-/J	.
=88	=88	=88	=88	=88	=88
!	!LO:DY:b:t=F	!	!LO:DY:b:t=F	!	!
12B-'\L	f	12dd/L	f	4d/	.
12F'\	.	12b-/	.	.	.
12D'\J	.	12f/J	.	.	.
4BB-/	.	4d/	.	4r	.
2r	.	2r	.	(12d/L	.
.	.	.	.	12f/)	.
.	.	.	.	12b-|/J	.
.	.	.	.	(12a/L	.
.	.	.	.	12cc/)	.
.	.	.	.	12ee-|/J	.
=89	=89	=89	=89	=89	=89
!LO:TX:a:t=1	!	!LO:TX:a:t=1	!	!	!
1r	.	1r	.	12dd\L	.
.	.	.	.	12ff\	.
.	.	.	.	12bb-\J	.
.	.	.	.	12gg\L	.
.	.	.	.	12ee-\	.
.	.	.	.	12cc\J	.
.	.	.	.	12ff\L	.
.	.	.	.	12dd\	.
.	.	.	.	12b-\J	.
.	.	.	.	12ee-\L	.
.	.	.	.	12cc\	.
.	.	.	.	12a\J	.
!	!	!	!	!LO:LB:g=original	!
=90	=90	=90	=90	=90	=90
4r	.	4r	.	(12b-/L	.
.	.	.	.	12dd/	.
.	.	.	.	12cc/	.
4BB-/	p	4d/	p	12b-/	.
.	.	.	.	12a/	.
.	.	.	.	12g/J	.
4AA/	.	4c/	.	12f/L	.
.	.	.	.	12g/	.
.	.	.	.	12f/	.
.	.	.	.	8qqf/	.
4F\	.	8.A/L	.	12e-/	.
.	.	.	.	12d/	.
.	.	.	.	12c/J	.
.	.	16e-/Jk	.	.	.
=91	=91	=91	=91	=91	=91
!	!LO:DY:b:t=F	!	!LO:DY:b:t=F	!	!
12BB-\L	f	12d/L	f	4B-/)	.
12D\	.	12f/	.	.	.
12F\J	.	12b-/J	.	.	.
4B-\	.	4dd\	.	4r	.
2r	.	2r	.	12d/L	.
.	.	.	.	12f/	.
.	.	.	.	12b-/J	.
.	.	.	.	12a\L	.
.	.	.	.	12cc\	.
.	.	.	.	12ee-\J	.
=92	=92	=92	=92	=92	=92
!LO:TX:a:t=1	!	!LO:TX:a:t=1	!	!	!
1r	.	1r	.	12dd\L	.
!	!	!LO:PB:g=original	!	!	!
.	.	.	.	12ff\	.
.	.	.	.	12bb-\J	.
.	.	.	.	12gg\L	.
.	.	.	.	12ee-\	.
.	.	.	.	12cc\J	.
.	.	.	.	12ff\L	.
.	.	.	.	12dd\	.
.	.	.	.	12b-\J	.
.	.	.	.	12ee-\L	.
.	.	.	.	12cc\	.
.	.	.	.	12a\J	.
=93	=93	=93	=93	=93	=93
4r	.	4r	.	12b-\L	.
.	.	.	.	12dd\	.
.	.	.	.	12cc\J	.
4BB-/	p	4d/	p	12b-/L	.
.	.	.	.	12a/	.
.	.	.	.	12g/J	.
4AA/	.	4c/	.	12f/L	.
.	.	.	.	12g/	.
.	.	.	.	12f/J	.
4F\	.	8.A/L	.	12e-/L	.
.	.	.	.	12d/	.
.	.	.	.	12c/J	.
.	.	16e-/Jk	.	.	.
=94	=94	=94	=94	=94	=94
4BB-/	.	(12d/L	.	4B-/	.
.	.	12e-/	.	.	.
.	.	12f/J)	.	.	.
!	!	!	!LO:HP:t=cres	!	!
4B-\	.	12f'/L	<	4r	.
.	.	12f'/	.	.	.
.	.	12f'/J	.	.	.
!	!LO:HP:t=cres	!	!	!	!
[2BB-/	<[	(12f/L	.	4r	.
.	.	12d/)	.	.	.
.	.	12f|/J	[	.	.
.	.	.	.	8qqccc/	.
.	.	(12f/L	.	12bb-\L	.
.	.	12e-/)	.	12aa\	.
.	.	12d|/J	.	12bb-\J	.
!	!	!	!	!LO:LB:g=original	!
=95	=95	=95	=95	=95	=95
!	!	!LO:TX:b:i:t=rinf	!	!	!
4BB-/]	.	(12e-/L	.	4gg\	.
.	.	12f/	.	.	.
.	.	12g/J)	.	.	.
4B-\	.	12g'/L	.	4r	.
.	.	12g'/	.	.	.
.	.	12g'/J	.	.	.
[2BB-/	.	(12g/L	.	4r	.
.	.	12e-/)	.	.	.
.	.	12g|/J	.	.	.
.	.	.	.	8qqccc/	.
.	.	(12g/L	.	12bb-\L	.
.	.	12f/)	.	12aa\	.
.	.	12e-|/J	.	12bb-\J	.
=96	=96	=96	=96	=96	=96
4BB-/]	p	(12d/L	p	(2ff\	.
.	.	12e-/	.	.	.
.	.	12f/J)	.	.	.
4B-\	.	(12f/L	.	.	.
.	.	12e-/	.	.	.
.	.	12d/J)	.	.	.
2B-\	.	2d/	.	12ff\L	.
!LO:LB:g=original	!	!	!	!	!
.	.	.	.	12ee-\	.
.	.	.	.	12dd\J	.
.	.	.	.	12dd\L	.
.	.	.	.	12cc\	.
.	.	.	.	12b-\J)	.
=97	=97	=97	=97	=97	=97
(12A\L	.	(12c/L	.	(2f/	.
12B-\	.	12d/	.	.	.
12c\J)	.	12e-/J)	.	.	.
(12c\L	.	(12e-/L	.	.	.
12B-\	.	12d/	.	.	.
12A\J)	.	12c/J)	.	.	.
4A\	.	2c/	.	12f/L	.
!	!	!LO:LB:g=original	!	!	!
.	.	.	.	12g/	.
.	.	.	.	12a/J)	.
4F\	.	.	.	(12a/L	.
.	.	.	.	12b-/	.
.	.	.	.	12cc/J)	.
=98	=98	=98	=98	=98	=98
!	!LO:DY:b:t=F	!	!	!	!
4BB-/	f	(12B-/L	.	(12dd\L	.
.	.	12c/)	.	12cc\	.
!	!	!	!LO:HP:t=cres	!	!
.	.	12d|/J	<	12b-\J	.
4B-\	.	(12d/L	.	4b-\)	.
.	.	12e-/)	.	.	.
.	.	12f|/J	.	.	.
[2BB-/	.	(12f/L	.	4r	.
.	.	12d/)	.	.	.
.	.	12f|/J	[	.	.
.	.	.	.	8qqccc/	.
.	.	(12f/L	.	(12bb-\L	.
.	.	12e-/)	.	12aa\	.
.	.	12d|/J	.	12bb-\J)	.
=99	=99	=99	=99	=99	=99
!	!	!LO:TX:b:i:t=rinf	!	!	!
4BB-/]	.	(12e-/L	.	4gg\	.
.	.	12f/	.	.	.
.	.	12g/J)	.	.	.
4B-\	.	12g'/L	.	4r	.
.	.	12g'/	.	.	.
.	.	12g'/J	.	.	.
[2BB-/	.	(12g/L	.	4r	.
.	.	12e-/)	.	.	.
.	.	12g|/J	.	.	.
.	.	.	.	8qqccc/	.
.	.	(12g/L	.	(12bb-\L	.
.	.	12f/)	.	12aa\	.
.	.	12e-|/J	.	12bb-\J)	.
=100	=100	=100	=100	=100	=100
4BB-/]	p	(12d/L	p	(2ff\	.
.	.	12e-/	.	.	.
.	.	12f/J)	.	.	.
4B-\	.	(12f/L	.	.	.
.	.	12e-/	.	.	.
.	.	12d/J)	.	.	.
[2BB-/	.	2d/	.	12ff\L	.
.	.	.	.	12ee-\	.
.	.	.	.	12dd\J	.
.	.	.	.	12dd\L	.
.	.	.	.	12cc\	.
.	.	.	.	12b-\J)	.
!	!	!	!	!LO:LB:g=original	!
=101	=101	=101	=101	=101	=101
!	!	!LO:TX:b:i:t=rinf	!	!	!
4BB-/]	.	2a-X/	.	((12b-\L	.
.	.	.	.	12cc\	.
.	.	.	.	12dd\J)	.
4B-\	.	.	.	(12dd\L	.
.	.	.	.	12ee-\	.
.	.	.	.	12ff\J))	.
4B-\	.	(12a-/L	.	((12ff\L	.
.	.	12g/)	.	12gg\	.
.	.	12f|/J	.	12aa-X\J)	.
4B-\	.	12f/L	.	(12aa-\L	.
.	.	12e-/	.	12gg\	.
.	.	12d/J	.	12ff\J))	.
=102	=102	=102	=102	=102	=102
!	!	!LO:TX:b:i:t=rinf	!	!	!
4B-\	.	2g/	.	(4ee-\	.
4B-\	.	.	.	12ee-\L	.
.	.	.	.	12ff\	.
.	.	.	.	12gg\J)	.
4B-\	.	(12b-/L	.	((12gg\L	.
.	.	12a-X/)	.	12aa-X\	.
.	.	12g|/J	.	12bb-\J)	.
4B-\	.	(12g/L	.	(12bb-\L	.
.	.	12f/)	.	12aa-\	.
.	.	12e-|/J	.	12gg\J))	.
!	!	!LO:LB:g=original	!	!	!
=103	=103	=103	=103	=103	=103
!	!	!LO:TX:b:i:t=rinf	!	!	!
4B-\	.	(12c/L	.	(12aan\L	.
.	.	12d/	.	12bb-\	.
.	.	12e-/J)	.	12ccc\J)	.
4B-\	.	12e-'/L	.	12ccc|\L	.
.	.	12e-'/	.	12ccc|\	.
.	.	12e-'/J	.	12ccc|\J	.
4B-\	.	(12e-/L	.	(12ccc\L	.
.	.	12d/)	.	12bb-\)	.
.	.	12c|/J	.	12aa|\J	.
4B-\	.	(12c/L	.	(12aa\L	.
.	.	12d/)	.	12bb-\)	.
.	.	12e-|/J	.	12ccc|\J	.
=104	=104	=104	=104	=104	=104
!	!LO:DY:b:t=F	!	!LO:DY:b:t=F	!	!
4B-\	f	(12d/L	f	12bb-|\L	.
.	.	12f/)	.	(12ddd\	.
.	.	12e-|/J	.	12ccc\J	.
4BB-/	.	(12d/L	.	12bb-\L)	.
.	.	12f/)	.	(12ddd\	.
.	.	12e-|/J	.	12ccc\J	.
4BB-/	.	4d/	.	4bb-\)	.
4r	.	4r	.	4r	.
!	!	!	!	!LO:LB:g=original	!
=105	=105	=105	=105	=105	=105
!LO:TX:t=P:problem:mixed beam	!	!	!	!	!
12GG/L	p	12b-\L	p	(12een\L	.
12G\	.	12b-\	.	12bb-\)	.
12G\J	.	12b-\J	.	12gg|\J	.
12G\L	.	12b-\L	.	(12ee\L	.
12G\	.	12b-\	.	12bb-\)	.
12G\J	.	12b-\J	.	12gg|\J	.
4G\	.	4b-\	.	4ee\	.
4r	.	4r	.	4r	.
=106	=106	=106	=106	=106	=106
!	!	!	!LO:DY:b:t=F	!	!
4r	.	4a/	f	12ff\L	.
.	.	.	.	12ccc\	.
.	.	.	.	12aa\J	.
!	!LO:DY:b:t=F	!	!	!	!
4FF/	f	4A/	.	12ff\L	.
.	.	.	.	12aa\	.
.	.	.	.	12ff\J	.
4AA/	.	4c/	.	12cc\L	.
.	.	.	.	12ff\	.
.	.	.	.	12cc\J	.
4C/	.	4f/	.	12a/L	.
!LO:LB:g=original	!	!	!	!	!
.	.	.	.	12cc/	.
.	.	.	.	12a/J	.
=107	=107	=107	=107	=107	=107
4F\	.	8a'/L	.	4f/	.
.	.	8f'/	p	.	.
4r	.	8en'/	.	4r	.
.	.	8f'/J	.	.	.
2r	.	8g'/L	.	8r	.
.	.	8a'/	.	(8ff\L	.
.	.	8b-'/	.	8een\	.
.	.	8cc'/J	.	8ee-X\J)	.
!	!	!LO:LB:g=original	!	!	!
=108	=108	=108	=108	=108	=108
!	!	!LO:TX:b:i:t=dol	!	!	!
4BB-/	p	8dd'\L	.	(8dd\L	.
.	.	8cc'\	.	8ee-\	.
4r	.	8b-'\	.	8ff\	.
.	.	8dd'\J	.	8bb-\J	.
8F'\L	.	(4cc\	.	8aa\L	.
8G'\	.	.	.	8gg\	.
8A'\	.	4ff\)	.	8ff\	.
8F'\J	.	.	.	8ee-\J)	.
=109	=109	=109	=109	=109	=109
4B-\	.	8dd\L	.	8dd\L	.
.	.	8cc\	.	8ee-\	.
4r	.	8b-\	.	8ff\	.
.	.	8dd\J	.	8bb-\J	.
8F\L	.	4cc\	.	8aa\L	.
8G\	.	.	.	8gg\	.
8A\	.	4ff\	.	8ff\	.
8F\J	.	.	.	8ee-\J	.
!	!	!	!	!LO:LB:g=original	!
=110	=110	=110	=110	=110	=110
4B-\	.	8dd\L	.	8dd\L	.
.	.	8cc\	.	8ee-\	.
4r	.	8b-\	.	8ff\	.
.	.	8dd\J	.	8bb-\J	.
2r	.	8cc\L	.	8aa\L	.
.	.	8b-\	.	8gg\J	.
.	.	8a\	.	[4ff\	.
.	.	8cc\J	.	.	.
=111	=111	=111	=111	=111	=111
4r	.	8b-/L	.	4ff\]	.
.	.	8a/	.	.	.
4C/	.	8b-/	.	4een\	.
.	.	8g/J	.	.	.
4F\	.	8f/L	.	8ff'\L	.
.	.	8a/	.	8aa'\	.
4r	.	8b-/	.	8bb-'\	.
.	.	8cc/J	.	8ccc'\J	.
=112	=112	=112	=112	=112	=112
4BB-/	.	8dd\L	.	(8ddd'\L	.
.	.	8ee-\J	.	8ccc'\	.
2B-\	.	4ff\	.	8bb-'\	.
.	.	.	.	8ddd'\J)	.
.	.	8ee-\L	.	(4ccc\	.
.	.	8dd\J	.	.	.
4A\	.	4cc\	.	4fff\)	.
=113	=113	=113	=113	=113	=113
4GG/	.	8b-\L	.	8bb-\L	.
.	.	8cc\J	.	8aa\	.
2G\	.	4dd\	.	8gg\	.
.	.	.	.	8bb-\J	.
.	.	8cc\L	.	4aa\	.
.	.	8b-\J	.	.	.
4F\	.	4a/	.	4ddd\	.
!	!	!LO:LB:g=original	!	!	!
=114	=114	=114	=114	=114	=114
4EE-/	.	8g/L	.	8gg\L	.
.	.	8a/J	.	8ff\	.
2E-\	.	4b-/	.	8ee-\	.
.	.	.	.	8gg\J	.
.	.	8a-X/L	.	4ff\	.
.	.	8g/J	.	.	.
4D\	.	4f/	.	4bb-\	.
=115	=115	=115	=115	=115	=115
4E-\	.	4e-/	.	8gg\L	.
.	.	.	.	8aa\	.
4r	.	4r	.	8bb-\	.
.	.	.	.	8bbn\J	.
2r	.	8ee-\L	.	8ccc\L	.
.	.	8ff\	.	8ddd\	.
.	.	8gg\	.	8eee-\	.
.	.	8ee-\J	.	8ccc\J	.
=116	=116	=116	=116	=116	=116
4F\	.	8ff\L	.	8ddd\L	.
.	.	8ee-\J	.	8ccc\	.
4r	.	4dd\	.	8bb-X\	.
.	.	.	.	8ddd\J	.
8F\L	.	4ee-\	.	2cccT\	.
!	!	!	!	!LO:LB:g=original	!
8G\	.	.	.	.	.
8A\	.	4f\ 4ee-	.	.	.
8F\J	.	.	.	.	.
=117	=117	=117	=117	=117	=117
4B-\	.	4f/ 4dd	.	(16bb-\LL	.
.	.	.	.	16aa\	.
.	.	.	.	16bb-\)	.
.	.	.	.	16ddd|\JJ	.
8r	.	8r	.	16ff\LL	.
.	.	.	.	16gg\	.
8c\	.	8f/ 8ee-	.	16aa\	.
.	.	.	.	16ff\JJ	.
4B-\	.	4f/ 4dd	.	16bb-\LL	.
.	.	.	.	16aa\	.
.	.	.	.	16bb-\	.
.	.	.	.	16ddd\JJ	.
8r	.	8r	.	16ff\LL	.
.	.	.	.	16gg\	.
8c\	.	8f/ 8ee-	.	16aa\	.
!LO:LB:g=original	!	!	!	!	!
.	.	.	.	16ff\JJ	.
=118	=118	=118	=118	=118	=118
4B-\	.	4f/ 4dd	.	(16bb-\LL	.
.	.	.	.	16aa\)	.
.	.	.	.	(16ccc\	.
.	.	.	.	16bb-\JJ)	.
4r	.	4r	.	(16ddd\LL	.
.	.	.	.	16ccc\)	.
.	.	.	.	(16eee-\	.
.	.	.	.	16ddd\JJ)	.
4.A\	.	8cc\L	.	(16fff\LL	.
.	.	.	.	16eeen\)	.
.	.	8ee-\J	.	(16fff\	.
.	.	.	.	16ggg\JJ)	.
.	.	4cc\	.	(16fff\LL	.
.	.	.	.	16eee-X\)	.
8F\	.	.	.	(16ddd\	.
.	.	.	.	16ccc\JJ)	.
=119	=119	=119	=119	=119	=119
4B-\	.	4f/ 4dd	.	(16bb-\LL	.
.	.	.	.	16aa\	.
.	.	.	.	16bb-\)	.
.	.	.	.	16ddd|\JJ	.
8r	.	8r	.	16ff\LL	.
.	.	.	.	16gg\	.
8c\	.	8f/ 8ee-	.	16aa\	.
.	.	.	.	16ff\JJ	.
4B-\	.	4f/ 4dd	.	16bb-\LL	.
.	.	.	.	16aa\	.
.	.	.	.	16bb-\	.
.	.	.	.	16ddd\JJ	.
8r	.	8r	.	16ff\LL	.
.	.	.	.	16gg\	.
8c\	.	8f/ 8ee-	.	16aa\	.
.	.	.	.	16ff\JJ	.
!	!	!	!	!LO:LB:g=original	!
=120	=120	=120	=120	=120	=120
4B-\	.	4f/ 4dd	.	16bb-\LL	.
.	.	.	.	16aa\	.
.	.	.	.	16ccc\	.
.	.	.	.	16bb-\JJ	.
4r	.	4r	.	16ddd\LL	.
.	.	.	.	16ccc\	.
.	.	.	.	16eee-\	.
.	.	.	.	16ddd\JJ	.
4.A\	.	8cc\L	.	16fff\LL	.
.	.	.	.	16eeen\	.
.	.	8ee-\J	.	16fff\	.
.	.	.	.	16ggg\JJ	.
.	.	4cc\	.	16fff\LL	.
!	!	!LO:LB:g=original	!	!	!
.	.	.	.	16eee-X\	.
8F\	.	.	.	16ddd\	.
.	.	.	.	16ccc\JJ	.
=121	=121	=121	=121	=121	=121
4B-\	.	4f/ 4dd	.	16bb-\LL	.
.	.	.	.	16aa\	.
.	.	.	.	16ccc\	.
.	.	.	.	16bb-\JJ	.
4r	.	4r	.	16ddd\LL	.
.	.	.	.	16ccc\	.
.	.	.	.	16eee-\	.
.	.	.	.	16ddd\JJ	.
2r	.	2r	.	16fff\LL	.
.	.	.	.	16eee-\	.
.	.	.	.	16ggg\	.
.	.	.	.	16fff\JJ	.
.	.	.	.	16aaa-X\LL	.
.	.	.	.	16ggg\	.
.	.	.	.	16bbb-\	.
.	.	.	.	16aaa-\JJ	.
=122	=122	=122	=122	=122	=122
4BB-/	.	4f/	.	16aaa-X\LL	.
.	.	.	.	16fff\	.
.	.	.	.	16fff\	.
.	.	.	.	16ddd\JJ	.
4r	.	4r	.	16ddd\LL	.
.	.	.	.	16bb-\	.
.	.	.	.	16bb-\	.
.	.	.	.	16aa\JJ	.
8r	.	8r	.	16aa\LL	.
.	.	.	.	16ff\	.
8BB-/L	.	8f/L	.	16ff\	.
.	.	.	.	16dd\JJ	.
8BB-/	.	8f/	.	16dd\LL	.
.	.	.	.	16b-\	.
8BB-/J	.	8f/J	.	16b-\	.
.	.	.	.	16a\JJ	.
!	!	!	!	!LO:LB:g=original	!
=123	=123	=123	=123	=123	=123
!	!	!	!LO:DY:b:t=F	!	!
4E-\	.	4e-/	f	16g/LL	.
.	.	.	.	(16G/	.
.	.	.	.	16B-/	.
.	.	.	.	16e-/JJ	.
4r	.	4gg\	.	16g/LL)	.
.	.	.	.	(16B-/	.
.	.	.	.	16e-/	.
.	.	.	.	16g/JJ	.
4E-\	.	4ee-\	.	16b-/LL)	.
.	.	.	.	(16e-/	.
.	.	.	.	16g/	.
.	.	.	.	16b-/JJ	.
4E-\	.	4b-\	.	16ee-/LL)	.
.	.	.	.	(16g/	.
.	.	.	.	16b-/	.
.	.	.	.	16ee-/JJ	.
=124	=124	=124	=124	=124	=124
4E-\	.	4g/	.	16gg/LL)	.
.	.	.	.	(16e-/	.
.	.	.	.	16g/	.
.	.	.	.	16b-/JJ	.
4B-\	.	4r	.	16ee-/LL)	.
.	.	.	.	(16g/	.
.	.	.	.	16b-/	.
.	.	.	.	16ee-/JJ	.
4G\	.	4b-\	.	16gg\LL)	.
.	.	.	.	(16b-\	.
.	.	.	.	16ee-\	.
.	.	.	.	16gg\JJ	.
4En\	.	4b-\	.	16bb-\LL	.
.	.	.	.	16aan\	.
.	.	.	.	16bb-\	.
.	.	.	.	16gg\JJ)	.
=125	=125	=125	=125	=125	=125
4F\	.	4b-\	.	16ff\LL	.
.	.	.	.	16ddd\	.
.	.	.	.	16ccc\	.
.	.	.	.	16bb-\JJ	.
4r	.	4r	.	16aa\LL	.
.	.	.	.	16bb-\	.
.	.	.	.	16aa\	.
.	.	.	.	16gg\JJ	.
4F\	.	4d/ 4b-	.	16ff\LL	.
.	.	.	.	16ddd\	.
.	.	.	.	16ccc\	.
.	.	.	.	16bb-\JJ	.
4r	.	4r	.	16aa\LL	.
.	.	.	.	16bb-\	.
.	.	.	.	16aa\	.
.	.	.	.	16gg\JJ	.
!	!	!	!	!LO:LB:g=original	!
=126	=126	=126	=126	=126	=126
4F\	.	4d/ 4b-	.	16ff\LL	.
.	.	.	.	16ddd\	.
.	.	.	.	16ccc\	.
.	.	.	.	16bb-\JJ	.
4r	.	4r	.	16aa\LL	.
.	.	.	.	16bb-\	.
.	.	.	.	16aa\	.
.	.	.	.	16gg\JJ	.
2r	.	2r	.	16ff\LL	.
.	.	.	.	16gg\	.
.	.	.	.	16ff\	.
.	.	.	.	16een\JJ	.
.	.	.	.	16ff\LL	.
.	.	.	.	16gg\	.
.	.	.	.	16ff\	.
.	.	.	.	16ee\JJ	.
=127	=127	=127	=127	=127	=127
*tremolo	*	*	*	*	*
8F\L	p	8b-\L	.	16ff\LL	.
.	.	.	.	16dd\	.
8F\	.	8b-\J	.	16gg\	.
.	.	.	.	16ff\JJ	.
8F\	.	4b-\	.	16ee-X\LL	.
.	.	.	.	16dd\	.
8F\J	.	.	.	16cc\	.
.	.	.	.	16b-\JJ	.
8F\L	.	8a/L	.	2ccT\	.
8F\	.	8a/J	.	.	.
8F\	.	4e-/	.	.	.
8F\J	.	.	.	.	.
*Xtremolo	*	*	*	*	*
!LO:LB:g=original	!	!	!	!	!
=128	=128	=128	=128	=128	=128
!	!LO:DY:b:t=F	!	!	!	!
12B-\L	f	12d/L	.	4b-\	.
!	!	!	!LO:DY:b:t=F	!	!
12F\	.	12f/	f	.	.
12D\J	.	12b-/J	.	.	.
4BB-/	.	4dd\	.	4r	.
2r	.	2r	.	(12d/L	.
.	.	.	.	12f/)	.
.	.	.	.	12b-|/J	.
.	.	.	.	(12a\L	.
.	.	.	.	12cc\)	.
.	.	.	.	12ee-|\J	.
=129	=129	=129	=129	=129	=129
4r	.	4r	.	12dd\L	.
.	.	.	.	12ff\	.
.	.	.	.	12bb-\J	.
4E-\	p	4c/	p	12gg\L	.
.	.	.	.	12ee-\	.
.	.	.	.	12cc\J	.
2F\	.	4d/	.	12ff\L	.
.	.	.	.	12dd\	.
.	.	.	.	12b-\J	.
.	.	4e-/	.	12ee-\L	.
!	!	!LO:LB:g=original	!	!	!
.	.	.	.	12cc\	.
.	.	.	.	12a\J	.
!	!	!	!	!LO:LB:g=original	!
=130	=130	=130	=130	=130	=130
!	!LO:DY:b:t=F	!	!LO:DY:b:t=F	!	!
12B-\L	f	12d/L	f	4b-/	.
12F\	.	12f/	.	.	.
12D\J	.	12b-/J	.	.	.
4BB-/	.	4dd\	.	4r	.
2r	.	2r	.	12d/L	.
.	.	.	.	12f/	.
.	.	.	.	12b-/J	.
.	.	.	.	12a\L	.
.	.	.	.	12cc\	.
.	.	.	.	12ee-\J	.
=131	=131	=131	=131	=131	=131
4r	.	4r	.	12dd\L	.
.	.	.	.	12ff\	.
.	.	.	.	12bb-\J	.
4E-\	p	4c/	p	12gg\L	.
.	.	.	.	12ee-\	.
.	.	.	.	12cc\J	.
2F\	.	4d/	.	12ff\L	.
.	.	.	.	12dd\	.
.	.	.	.	12b-\J	.
.	.	4e-/	.	12ee-\L	.
.	.	.	.	12cc\	.
.	.	.	.	12a\J	.
=132	=132	=132	=132	=132	=132
4B-\	.	4d/	.	12b-|/L	.
.	.	.	.	(12dd/	.
.	.	.	.	12cc/J	.
4r	.	4r	.	12b-/L	.
.	.	.	.	12a/	.
.	.	.	.	12g/J	.
4AA/	.	4c/	.	12f/L	.
.	.	.	.	12g/	.
.	.	.	.	12f/J	.
4FF/	.	4A/	.	12e-/L	.
.	.	.	.	12d/	.
.	.	.	.	12e-/J)	.
=133	=133	=133	=133	=133	=133
12FF/L	pp	12A/L	pp	1c 1e-	.
12FF/	.	12A/	.	.	.
12FF/J	.	12A/J	.	.	.
12FF/L	.	12A/L	.	.	.
12FF/	.	12A/	.	.	.
12FF/J	.	12A/J	.	.	.
12FF/L	.	12A/L	.	.	.
12FF/	.	12A/	.	.	.
12FF/J	.	12A/J	.	.	.
12FF/L	.	(12A/L	.	.	.
12GG/	.	12B-/)	.	.	.
12AA/J	.	12c|/J	.	.	.
=134	=134	=134	=134	=134	=134
!	!LO:DY:b:t=F	!	!LO:DY:b:t=F	!	!
4BB-/	f	4B-/	f	4B-/ 4d	.
4r	.	4r	.	4r	.
4BB-/	.	4f/ 4dd	.	4d\ 4b- 4bb-	.
4r	.	4r	.	4r	.
=135	=135	=135	=135	=135	=135
!	!LO:DY:b:t=FF	!	!LO:DY:b:t=FF	!	!
12BB-\L	ff	12dd/L	ff	2B-/	.
12D\	.	12b-/	.	.	.
12F\J	.	12f/J	.	.	.
4B-\	.	4d/	.	.	.
2r	.	2r	.	2r	.
==	==	==	==	==	==
*-	*-	*-	*-	*-	*-
!!!system-decoration: [(s1,s2,s3)]
!!!RDF**kern: | = vertical stroke
!!!RDF**dynam: < = cres
!!!ENC: Mateusz Solarz
!!!END: 2022-05-24
!!!ENC: Julita Ruszuk
!!!END: 2022-07-03
!!!YEC: Copyright 2022 Narodowy Instytut Fryderyka Chopina (https://polishscores.org)
!!!YEM: License CC-BY-4.0 (https://creativecommons.org/licenses/by/4.0)
